build/finance/PalladiumSolid.svg

<svg xmlns="http://www.w3.org/2000/svg" fill="none" viewBox="0 0 24 24" focusable="false"><path d="M0 0H24V24H0z"/><path fill="#74767B" fill-rule="evenodd" d="M5.00018 5.005C3.34328 5.005 2.00012 6.34822 2.00018 8.00512L2.00049 15.9951C2.00056 17.6519 3.34369 18.995 5.00049 18.995L19 18.995C20.6569 18.995 22 17.6518 22 15.9949L21.9996 8.00489C21.9996 6.34808 20.6564 5.005 18.9996 5.005L5.00018 5.005ZM5.99927 12.9541L5.99927 15.3746C5.99927 15.7336 6.29029 16.0246 6.64927 16.0246C7.00826 16.0246 7.29927 15.7336 7.29927 15.3746L7.29927 13.5948L9.21079 13.5948C10.7626 13.5948 12.0205 12.3369 12.0205 10.7851C12.0205 9.23333 10.7626 7.97537 9.21081 7.97536L7.34928 7.97534C6.60369 7.97534 5.99927 8.57975 5.99927 9.32534L5.99927 12.9356L5.99921 12.9448L5.99927 12.9541ZM7.29927 12.2948L7.29927 9.32534C7.29927 9.29773 7.32166 9.27534 7.34927 9.27534L9.2108 9.27535C10.0446 9.27536 10.7205 9.9513 10.7205 10.7851C10.7205 11.6189 10.0446 12.2948 9.21079 12.2948L7.29927 12.2948ZM18.0007 11.6432L18.0007 8.6254C18.0007 8.26642 17.7097 7.9754 17.3507 7.9754C16.9918 7.9754 16.7007 8.26642 16.7007 8.6254L16.7007 11.0025L15.4976 11.0025C14.1107 11.0025 12.9865 12.1267 12.9865 13.5136C12.9865 14.9004 14.1107 16.0247 15.4976 16.0247L16.6507 16.0247C17.3963 16.0247 18.0007 15.4203 18.0007 14.6747L18.0007 11.6617L18.0008 11.6525L18.0007 11.6432ZM16.7007 12.3025L16.7007 14.6747C16.7007 14.7023 16.6784 14.7247 16.6507 14.7247L15.4976 14.7247C14.8287 14.7247 14.2865 14.1824 14.2865 13.5136C14.2865 12.8447 14.8287 12.3025 15.4976 12.3025L16.7007 12.3025Z"/></svg>

<svg xmlns="http://www.w3.org/2000/svg" fill="none" viewBox="0 0 24 24" focusable="false"><path fill="#74767B" fill-rule="evenodd" d="M5 5C3.34 5 2 6.34 2 8v7.99c0 1.66 1.34 3 3 3h14c1.65 0 3-1.34 3-3L21.99 8c0-1.66-1.34-3-3-3zm.99 7.95v2.42c0 .36.3.65.65.65.36 0 .65-.29.65-.65v-1.78h1.92c1.55 0 2.81-1.26 2.81-2.81s-1.26-2.81-2.81-2.81H7.34c-.74 0-1.35.6-1.35 1.35v3.63m1.3-.66V9.32c0-.03.03-.05.05-.05h1.87c.83 0 1.51.68 1.51 1.51s-.68 1.51-1.51 1.51zM18 11.64V8.62c0-.36-.3-.65-.65-.65-.36 0-.65.29-.65.65V11h-1.21c-1.38 0-2.51 1.12-2.51 2.51s1.13 2.51 2.51 2.51h1.16c.74 0 1.35-.6 1.35-1.35v-3.03m-1.3.66v2.37c0 .03-.03.05-.05.05h-1.16c-.67 0-1.21-.54-1.21-1.21s.54-1.21 1.21-1.21z"/></svg>
